public/img/laptop-code-solid.svg

<svg xmlns="http://www.w3.org/2000/svg" viewBox="0 0 640 512"><!--!Font Awesome Free 6.5.1 by @fontawesome - https://fontawesome.com License - https://fontawesome.com/license/free Copyright 2024 Fonticons, Inc.--><path d="M64 96c0-35.3 28.7-64 64-64H512c35.3 0 64 28.7 64 64V352H512V96H128V352H64V96zM0 403.2C0 392.6 8.6 384 19.2 384H620.8c10.6 0 19.2 8.6 19.2 19.2c0 42.4-34.4 76.8-76.8 76.8H76.8C34.4 480 0 445.6 0 403.2zM281 209l-31 31 31 31c9.4 9.4 9.4 24.6 0 33.9s-24.6 9.4-33.9 0l-48-48c-9.4-9.4-9.4-24.6 0-33.9l48-48c9.4-9.4 24.6-9.4 33.9 0s9.4 24.6 0 33.9zM393 175l48 48c9.4 9.4 9.4 24.6 0 33.9l-48 48c-9.4 9.4-24.6 9.4-33.9 0s-9.4-24.6 0-33.9l31-31-31-31c-9.4-9.4-9.4-24.6 0-33.9s24.6-9.4 33.9 0z"/></svg>

<svg width="640" height="512" viewBox="0 0 640 512" fill="none" xmlns="http://www.w3.org/2000/svg">
<path d="M64 96C64 60.7 92.7 32 128 32H512C547.3 32 576 60.7 576 96V352H512V96H128V352H64V96ZM0 403.2C0 392.6 8.6 384 19.2 384H620.8C631.4 384 640 392.6 640 403.2C640 445.6 605.6 480 563.2 480H76.8C34.4 480 0 445.6 0 403.2ZM281 209L250 240L281 271C290.4 280.4 290.4 295.6 281 304.9C271.6 314.2 256.4 314.3 247.1 304.9L199.1 256.9C189.7 247.5 189.7 232.3 199.1 223L247.1 175C256.5 165.6 271.7 165.6 281 175C290.3 184.4 290.4 199.6 281 208.9V209ZM393 175L441 223C450.4 232.4 450.4 247.6 441 256.9L393 304.9C383.6 314.3 368.4 314.3 359.1 304.9C349.8 295.5 349.7 280.3 359.1 271L390.1 240L359.1 209C349.7 199.6 349.7 184.4 359.1 175.1C368.5 165.8 383.7 165.7 393 175.1V175Z" fill="#1DC0B2"/>
</svg>
